build/img/icons/area.svg

<svg width="20" height="15" viewBox="0 0 20 15" fill="none" xmlns="http://www.w3.org/2000/svg">
<path d="M20 10H18.1818V11.6667H20V10ZM20 13.3333H18.1818V15H20V13.3333ZM20 6.66667H18.1818V8.33333H20V6.66667ZM12.7273 0H10.9091V1.66667H12.7273V0ZM20 3.33333H18.1818V5H20V3.33333ZM0 15H9.09091V10H0V15ZM1.81818 3.33333H0V5H1.81818V3.33333ZM12.7273 13.3333H10.9091V15H12.7273V13.3333ZM16.3636 0H14.5455V1.66667H16.3636V0ZM20 0H18.1818V1.66667H20V0ZM16.3636 13.3333H14.5455V15H16.3636V13.3333ZM1.81818 6.66667H0V8.33333H1.81818V6.66667ZM9.09091 0H7.27273V1.66667H9.09091V0ZM5.45455 0H3.63636V1.66667H5.45455V0ZM1.81818 0H0V1.66667H1.81818V0Z" fill="#C4C4C4"/>
</svg>

<svg width="20" height="15" fill="none" xmlns="http://www.w3.org/2000/svg">
    <path d="M20 10h-1.818v1.667H20V10zm0 3.333h-1.818V15H20v-1.667zm0-6.666h-1.818v1.666H20V6.667zM12.727 0H10.91v1.667h1.818V0zM20 3.333h-1.818V5H20V3.333zM0 15h9.09v-5H0v5zM1.818 3.333H0V5h1.818V3.333zm10.91 10h-1.819V15h1.818v-1.667zM16.363 0h-1.819v1.667h1.819V0zM20 0h-1.818v1.667H20V0zm-3.636 13.333h-1.819V15h1.819v-1.667zM1.818 6.667H0v1.666h1.818V6.667zM9.091 0H7.273v1.667H9.09V0zM5.455 0H3.636v1.667h1.819V0zM1.818 0H0v1.667h1.818V0z" fill="#C4C4C4"/>
</svg>
